svg/system/checks_line.svg

<?xml version="1.0" encoding="UTF-8"?>
<svg width="24px" height="24px" viewBox="0 0 24 24" version="1.1" xmlns="http://www.w3.org/2000/svg" xmlns:xlink="http://www.w3.org/1999/xlink">
    <title>checks_line</title>
    <g id="Icon" stroke="none" stroke-width="1" fill="none" fill-rule="evenodd">
        <g id="System" transform="translate(-912.000000, -384.000000)" fill-rule="nonzero">
            <g id="checks_line" transform="translate(912.000000, 384.000000)">
                <path d="M24,0 L24,24 L0,24 L0,0 L24,0 Z M12.5935,23.2578 L12.5819,23.2595 L12.5109,23.295 L12.4919,23.2987 L12.4767,23.295 L12.4057,23.2595 C12.3958,23.2564 12.387,23.259 12.3821,23.2649 L12.378,23.2758 L12.3609,23.7031 L12.3659,23.7235 L12.3769,23.7357 L12.4805,23.8097 L12.4953,23.8136 L12.5071,23.8097 L12.6107,23.7357 L12.6233,23.7197 L12.6267,23.7031 L12.6096,23.2758 C12.6076,23.2657 12.601,23.2593 12.5935,23.2578 Z M12.8584,23.1453 L12.8445,23.1473 L12.6598,23.2397 L12.6499,23.2499 L12.6472,23.2611 L12.6651,23.6906 L12.6699,23.7034 L12.6784,23.7105 L12.8793,23.8032 C12.8914,23.8069 12.9022,23.803 12.9078,23.7952 L12.9118,23.7812 L12.8777,23.1665 C12.8753,23.1546 12.8674,23.147 12.8584,23.1453 Z M12.143,23.1473 C12.1332,23.1424 12.1222,23.1453 12.1156,23.1526 L12.1099,23.1665 L12.0758,23.7812 C12.0751,23.7927 12.0828,23.8019 12.0926,23.8046 L12.1083,23.8032 L12.3092,23.7105 L12.3186,23.7024 L12.3225,23.6906 L12.3404,23.2611 L12.3372,23.2485 L12.3278,23.2397 L12.143,23.1473 Z" id="MingCute"></path>
                <path d="M2.2216,11.1214 C2.58208923,10.7609385 3.14931645,10.7332107 3.54161152,11.0382166 L3.63582,11.1214 L7.87846,15.364 C8.26898,15.7545 8.26898,16.3877 7.87846,16.7782 C7.51797077,17.1387538 6.95074355,17.1664888 6.55844848,16.8614047 L6.46424,16.7782 L2.2216,12.5356 C1.83108,12.1451 1.83108,11.5119 2.2216,11.1214 Z M22.778,5.46452 C23.1384615,5.82500923 23.1661893,6.39223645 22.8611834,6.78453152 L22.778,6.87874 L12.9492,16.7075 C12.5502857,17.1064143 11.9212383,17.1349082 11.4894478,16.7929816 L11.3935,16.7075 L7.2216,12.5356 C6.83108,12.1451 6.83108,11.5119 7.2216,11.1214 C7.58208923,10.7609385 8.14931645,10.7332107 8.54161152,11.0382166 L8.63582,11.1214 L12.1714,14.6569 L21.3637,5.46452 C21.7543,5.074 22.3874,5.074 22.778,5.46452 Z M17.778,5.46452 C18.1384615,5.82500923 18.1661893,6.39223645 17.8611834,6.78453152 L17.778,6.87874 L12.8282,11.8285 C12.4377,12.219 11.8045,12.219 11.414,11.8285 C11.0535385,11.4680385 11.0258107,10.9007793 11.3308166,10.5085027 L11.414,10.4143 L16.3637,5.46452 C16.7543,5.074 17.3874,5.074 17.778,5.46452 Z" id="形状" fill="#09244B"></path>
            </g>
        </g>
    </g>
</svg>

<svg xmlns="http://www.w3.org/2000/svg" width="24" height="24"><g fill="none" fill-rule="nonzero"><path d="M24 0v24H0V0h24ZM12.594 23.258l-.012.002-.071.035-.02.004-.014-.004-.071-.036c-.01-.003-.019 0-.024.006l-.004.01-.017.428.005.02.01.013.104.074.015.004.012-.004.104-.074.012-.016.004-.017-.017-.427c-.002-.01-.009-.017-.016-.018Zm.264-.113-.014.002-.184.093-.01.01-.003.011.018.43.005.012.008.008.201.092c.012.004.023 0 .029-.008l.004-.014-.034-.614c-.003-.012-.01-.02-.02-.022Zm-.715.002a.023.023 0 0 0-.027.006l-.006.014-.034.614c0 .012.007.02.017.024l.015-.002.201-.093.01-.008.003-.011.018-.43-.003-.012-.01-.01-.184-.092Z"/><path fill="#09244B" d="M2.222 11.121a1 1 0 0 1 1.32-.083l.094.083 4.242 4.243a1 1 0 0 1-1.32 1.497l-.094-.083-4.242-4.242a1 1 0 0 1 0-1.415Zm20.556-5.656a1 1 0 0 1 .083 1.32l-.083.094-9.829 9.828a1.1 1.1 0 0 1-1.46.086l-.096-.085-4.171-4.172a1 1 0 0 1 1.32-1.498l.094.083 3.535 3.536 9.193-9.192a1 1 0 0 1 1.414 0Zm-5 0a1 1 0 0 1 .083 1.32l-.083.094-4.95 4.95a1 1 0 0 1-1.497-1.32l.083-.095 4.95-4.95a1 1 0 0 1 1.414 0Z"/></g></svg>
